packages/icons/svg/Fill/hard-drive.svg

<svg width="24" height="24" viewBox="0 0 24 24" fill="none" xmlns="http://www.w3.org/2000/svg">
<g id="Icon/Fill/hard-drive">
<path id="Mask" fill-rule="evenodd" clip-rule="evenodd" d="M5.61824 11L8.34224 5.553C8.51224 5.212 8.85524 5 9.23624 5H14.7642C15.1452 5 15.4882 5.212 15.6582 5.553L18.3822 11H5.61824ZM16.0002 17H12.0002C11.4502 17 11.0002 16.55 11.0002 16C11.0002 15.45 11.4502 15 12.0002 15H16.0002C16.5502 15 17.0002 15.45 17.0002 16C17.0002 16.55 16.5502 17 16.0002 17ZM8.00024 17C7.45024 17 7.00024 16.55 7.00024 16C7.00024 15.45 7.45024 15 8.00024 15C8.55024 15 9.00024 15.45 9.00024 16C9.00024 16.55 8.55024 17 8.00024 17ZM20.7892 11.342L17.4472 4.658C16.9352 3.636 15.9082 3 14.7642 3H9.23624C8.09224 3 7.06424 3.636 6.55324 4.658L3.21124 11.342C3.07324 11.618 3.00024 11.928 3.00024 12.236V18C3.00024 19.654 4.34624 21 6.00024 21H18.0002C19.6542 21 21.0002 19.654 21.0002 18V12.236C21.0002 11.928 20.9272 11.618 20.7892 11.342Z" fill="#000000"/>
</g>
</svg>

<svg fill="none" height="24" viewBox="0 0 24 24" width="24" xmlns="http://www.w3.org/2000/svg"><path clip-rule="evenodd" d="m5.61822 11.0001 2.724-5.44703c.17-.341.513-.553.894-.553h5.52798c.381 0 .724.212.894.553l2.724 5.44703zm10.38198 5.9999h-4c-.55 0-1-.45-1-1s.45-1 1-1h4c.55 0 1 .45 1 1s-.45 1-1 1zm-8 0c-.55 0-1-.45-1-1s.45-1 1-1 1 .45 1 1-.45 1-1 1zm12.789-5.658-3.342-6.684c-.512-1.022-1.539-1.658-2.683-1.658h-5.52799c-1.144 0-2.172.636-2.683 1.658l-3.342 6.684c-.138.276-.211.586-.211.894v5.764c0 1.654 1.346 3 3 3h11.99999c1.654 0 3-1.346 3-3v-5.764c0-.308-.073-.618-.211-.894z" fill="#6b7280" fill-rule="evenodd"/></svg>
